account-lock.svg

<svg fill="currentColor" viewBox="0 0 24 24"><path d="M6 8c0-2.21 1.79-4 4-4s4 1.79 4 4-1.79 4-4 4-4-1.79-4-4m6 10.2c0-.96.5-1.86 1.2-2.46v-.24c0-.39.07-.76.18-1.12-1.03-.24-2.17-.38-3.38-.38-4.42 0-8 1.79-8 4v2h10zm10 .1v3.5c0 .6-.6 1.2-1.3 1.2h-5.5c-.6 0-1.2-.6-1.2-1.3v-3.5c0-.6.6-1.2 1.2-1.2v-1.5c0-1.4 1.4-2.5 2.8-2.5s2.8 1.1 2.8 2.5V17c.6 0 1.2.6 1.2 1.3m-2.5-2.8c0-.8-.7-1.3-1.5-1.3s-1.5.5-1.5 1.3V17h3z"/></svg>

<svg  viewBox="0 0 24 24" fill="currentColor"><path  d="M6 8C6 5.79 7.79 4 10 4S14 5.79 14 8 12.21 12 10 12 6 10.21 6 8M12 18.2C12 17.24 12.5 16.34 13.2 15.74V15.5C13.2 15.11 13.27 14.74 13.38 14.38C12.35 14.14 11.21 14 10 14C5.58 14 2 15.79 2 18V20H12V18.2M22 18.3V21.8C22 22.4 21.4 23 20.7 23H15.2C14.6 23 14 22.4 14 21.7V18.2C14 17.6 14.6 17 15.2 17V15.5C15.2 14.1 16.6 13 18 13C19.4 13 20.8 14.1 20.8 15.5V17C21.4 17 22 17.6 22 18.3M19.5 15.5C19.5 14.7 18.8 14.2 18 14.2C17.2 14.2 16.5 14.7 16.5 15.5V17H19.5V15.5Z"/></svg>
